!!!!SEGMENT: pl-kk--kk-i-3--007-009_anonim--officium-secundum-agnus-dei.krn
!!!cenid: 15xx:597
!!!COM: Anonim
!!!COM-rismID: pe30004985
!!!CDT:
!!!CNT:
!!!OPR: Officium Secundum
!!!OTL: Agnus Dei
!!!OMV: 009
!!!PDT:
!!!AGN:
!!!SMS-siglum: PL-Kk
!!!SMS-shelfmark: Kk.I.3
!!!SMS-shelfwork: 007-009 M
!!!SMS-variant:
!!!SMS-altvar:
!!!NIFC-rismSourceID: 1001145493
!!!NIFC-rismChildID: 1001145493
!!!NIFC-islandoraID: pl-kk:1170
!!!URL-pdf-islandora: https://repozytorium.nifc.pl/islandora/object/pl-kk%3A1170/datastream/PDF/view
!!!URL-scan: https://polish.musicsources.pl/pl/lokalizacje/galeria/rekopisy/5919 @EN{Scan on Polish Music Sources Website} @PL{Skany w portalu Dziedzictwo Muzyki Polskiej w otwartym dostępie}
!!!IIIF:
!!!ONB-nifc: UWAGA: Discantus (s. 38r-v, skan 0040-0041), Tenor (s. 28r, skan 0200), Bassus (s. 36r-v, skan 0339-0340). Następna część: Ecce virgo concipiet
!!!AIN: 1 alto 1 bass 1 tenor
!!!key:
**kern	**text	**text	**kern	**text	**text	**kern	**text	**text
*part3	*part3	*part3	*part2	*part2	*part2	*part1	*part1	*part1
*staff3	*staff3	*staff3	*staff2	*staff2	*staff2	*staff1	*staff1	*staff1
*I"Bassus	*	*	*I"Tenor	*	*	*I"Discantus	*	*
*I'B	*	*	*I'T	*	*	*I'A	*	*
*Ibass	*	*	*Itenor	*	*	*Ialto	*	*
*ICvox	*	*	*ICvox	*	*	*ICvox	*	*
*clefF3	*	*	*clefC3	*	*	*clefC3	*	*
*k[]	*	*	*k[]	*	*	*k[]	*	*
*C:	*	*	*C:	*	*	*C:	*	*
=1-	=1-	=1-	=1-	=1-	=1-	=1-	=1-	=1-
*lig	*	*	*	*	*	*	*	*
1C/	A-	.	1c\	A-	.	0g\	A-	.
*	*	*	*lig	*	*	*	*	*
1G\	.	.	1d\	.	.	.	.	.
*Xlig	*	*	*	*	*	*	*	*
=2-	=2-	=2-	=2-	=2-	=2-	=2-	=2-	=2-
*lig	*	*	*	*	*	*	*	*
1C/	.	.	1c\	.	.	1e\	.	.
1F\	.	.	1A/	.	.	1f\	.	.
*Xlig	*	*	*	*	*	*	*	*
=3-	=3-	=3-	=3-	=3-	=3-	=3-	=3-	=3-
*lig	*	*	*	*	*	*lig	*	*
1D/	.	.	1F/	.	.	1f\	.	.
*	*	*	*Xlig	*	*	*	*	*
1C/	.	.	1G/	.	.	1e\	.	.
*Xlig	*	*	*	*	*	*Xlig	*	*
=4-	=4-	=4-	=4-	=4-	=4-	=4-	=4-	=4-
*	*	*	*lig	*	*	*	*	*
1F\	.	.	1A/	.	.	0c\	.	.
1C/	.	.	1G/	.	.	.	.	.
=5-	=5-	=5-	=5-	=5-	=5-	=5-	=5-	=5-
1C/	-gnus	.	1E/	.	.	2c/	-gnus	.
*	*	*	*	*	*	*custos:d	*	*
.	.	.	.	.	.	2e/	.	.
!	!	!	!	!	!	!LO:LB:g=original	!	!
*	*	*	*Xlig	*	*	*	*	*
2D/	de-	.	1F/	-gnus	.	2d/	gnus	.
1F\	.	.	.	.	.	2c/	.	.
=6-	=6-	=6-	=6-	=6-	=6-	=6-	=6-	=6-
.	.	.	1B/	de-	.	2d/	de-	.
2E/	.	.	.	.	.	2e/	.	.
1F\	.	.	1A/	.	.	2c/	.	.
*	*	*	*	*	*	*2\right	*	*
.	.	.	.	.	.	2f\	.	.
=7-	=7-	=7-	=7-	=7-	=7-	=7-	=7-	=7-
1G\	.	.	1G/	.	.	2d/	.	.
.	.	.	.	.	.	1g\	-i	.
2D/	-i	.	1A/	.	.	.	.	.
*custos:C	*	*	*	*	*	*	*	*
2F/	.	.	.	.	.	1f\	.	.
!LO:LB:g=original	!	!	!	!	!	!	!	!
=8-	=8-	=8-	=8-	=8-	=8-	=8-	=8-	=8-
*	*	*	*lig	*	*	*	*	*
1C/	.	.	1G/	-i	.	.	.	.
.	.	.	.	.	.	2e\	qui	.
1c\	qui	.	1F/	.	.	1f\	.	.
*	*	*	*Xlig	*	*	*	*	*
=9-	=9-	=9-	=9-	=9-	=9-	=9-	=9-	=9-
*2\right	*	*	*	*	*	*	*	*
2c\	tol-	.	1F/	qui	.	1f\	.	.
1A\	.	.	.	.	.	.	.	.
.	.	.	1A/	.	.	2e\	tol-	.
2F/	.	.	.	.	.	1f\	.	.
=10-	=10-	=10-	=10-	=10-	=10-	=10-	=10-	=10-
*lig	*	*	*	*	*	*	*	*
1A\	.	.	1c\	tol-	.	.	.	.
.	.	.	.	.	.	2f\	.	.
*	*	*	*lig	*	*	*	*	*
1G\	.	.	1d\	.	.	1g\	.	.
*Xlig	*	*	*	*	*	*	*	*
=11-	=11-	=11-	=11-	=11-	=11-	=11-	=11-	=11-
1A\	.	.	1c\	.	.	1e\	.	.
*	*	*	*Xlig	*	*	*	*	*
*	*	*	*	*	*	*custos:g	*	*
1D/	.	.	1f\	.	.	1d\	.	.
!	!	!	!	!	!	!LO:LB:g=original	!	!
=12-	=12-	=12-	=12-	=12-	=12-	=12-	=12-	=12-
2E/	.	.	1e\	.	.	0g\	.	.
2C/	.	.	.	.	.	.	.	.
1G\	.	.	1d\	.	.	.	.	.
=13-	=13-	=13-	=13-	=13-	=13-	=13-	=13-	=13-
*	*	*	*custos:d	*	*	*	*	*
2C/	.	.	1c\	.	.	1e\	.	.
1c\	.	.	.	.	.	.	.	.
!	!	!	!LO:LB:g=original	!	!	!	!	!
.	.	.	1d\	.	.	0g\	.	.
2B\	.	.	.	.	.	.	.	.
=14-	=14-	=14-	=14-	=14-	=14-	=14-	=14-	=14-
1c\	.	.	1e\	.	.	.	.	.
*	*	*	*lig	*	*	*	*	*
2G/	.	.	1d\	.	.	2g\	.	.
2F/	.	.	.	.	.	2a\	.	.
=15-	=15-	=15-	=15-	=15-	=15-	=15-	=15-	=15-
*custos:C	*	*	*	*	*	*	*	*
1G\	-lis	.	1d\	.	.	1g\	-lis	.
!LO:LB:g=original	!	!	!	!	!	!	!	!
*	*	*	*Xlig	*	*	*	*	*
2C/	pec-	.	1c\	-lis	.	2e\	pec-	.
1F\	-ca-	.	.	.	.	2f\	-ca-	.
=16-	=16-	=16-	=16-	=16-	=16-	=16-	=16-	=16-
.	.	.	1f\	pec-	.	2c/	.	.
2D/	-ta	.	.	.	.	1d\	.	.
1G\	.	.	1d\	-ca-	.	.	.	.
.	.	.	.	.	.	2B/	.	.
=17-	=17-	=17-	=17-	=17-	=17-	=17-	=17-	=17-
1F\	mu(n)-	.	1f\	-ta	.	2c/	-ta	.
.	.	.	.	.	.	1d\	mun-	.
1C/	.	.	1e\	mu(n)-	.	.	.	.
.	.	.	.	.	.	1c\	.	.
=18-	=18-	=18-	=18-	=18-	=18-	=18-	=18-	=18-
1D/	.	.	1f\	.	.	.	.	.
.	.	.	.	.	.	2B/	.	.
2C/	.	.	1e\	.	.	1c\	.	.
1c\	.	.	.	.	.	.	.	.
=19-	=19-	=19-	=19-	=19-	=19-	=19-	=19-	=19-
.	.	.	1d\	.	.	1d\	-di	.
2B\	.	.	.	.	.	.	.	.
*	*	*	*	*	*	*custos:e	*	*
2c\	.	.	1c\	.	.	0g\	.	.
2C/	.	.	.	.	.	.	.	.
=20-	=20-	=20-	=20-	=20-	=20-	=20-	=20-	=20-
1G\	-di	.	1d\	-di	.	.	.	.
!	!	!	!	!	!	!LO:PB:g=original	!	!
1A\	mi-	Do-	1c\	.	.	1e\	mi-	Do-
=21-	=21-	=21-	=21-	=21-	=21-	=21-	=21-	=21-
2F/	-se-	-na	1f\	mi-	Do-	2d/	-se-	-na
2E/	.	.	.	.	.	1c\	.	.
*	*	*	*lig	*	*	*	*	*
1D/	-re-	no-	1f\	-ſe-	-na	.	.	.
.	.	.	.	.	.	2B/	.	.
=22-	=22-	=22-	=22-	=22-	=22-	=22-	=22-	=22-
1C/	-re	-bis	1c\	.	.	1c\	.	no-
*	*	*	*Xlig	*	*	*	*	*
*custos:A	*	*	*	*	*	*	*	*
1c\	No-	Pa-	1A/	-re-	no-	1e\	-re-	-bis
!LO:LB:g=original	!	!	!	!	!	!	!	!
=23-	=23-	=23-	=23-	=23-	=23-	=23-	=23-	=23-
1A\	.	.	1F/	-re	-bis	1f\	-re	.
*	*	*	*lig	*	*	*	*	*
2B\	.	.	1B/	no-	pa-	2d/	No-	Pa-
1G\	.	.	.	.	.	2e/	.	.
=24-	=24-	=24-	=24-	=24-	=24-	=24-	=24-	=24-
.	.	.	1A/	.	.	1f\	.	.
1F\	.	.	.	.	.	.	.	.
*	*	*	*Xlig	*	*	*	*	*
.	.	.	1G/	.	.	1g\	.	.
2E/	.	.	.	.	.	.	.	.
=25-	=25-	=25-	=25-	=25-	=25-	=25-	=25-	=25-
1F\	.	.	1A/	.	.	2c/	.	.
.	.	.	.	.	.	1f\	.	.
1C/	.	.	0G/	-bis	-cem	.	.	.
.	.	.	.	.	.	2e/	.	.
=26-	=26-	=26-	=26-	=26-	=26-	=26-	=26-	=26-
*	*	*	*	*	*	*custos:c	*	*
!LO:TX:t=P:problem= czerwona kreska taktowa	!	!	!	!	!	!	!	!
0F\;l	-bis	-cem	.	.	.	0f\;l	-bis	-cem
.	.	.	1F/l	.	.	.	.	.
!	!	!	!LO:LB:g=original	!	!	!	!	!
=27	=27	=27	=27	=27-	=27-	=27-	=27-	=27-
1F\	A-	.	1f\	A-	.	1c\	A-	.
*lig	*	*	*	*	*	*	*	*
1D/	-gnus	.	1f\	-gnus	.	1B/	-gnus	.
=28-	=28-	=28-	=28-	=28-	=28-	=28-	=28-	=28-
1C/	.	.	1e\	.	.	1c\	.	.
*Xlig	*	*	*	*	*	*	*	*
1BB/	.	.	1d\	.	.	2F/	.	.
.	.	.	.	.	.	1B/	.	.
=29-	=29-	=29-	=29-	=29-	=29-	=29-	=29-	=29-
1D/	.	.	1f\	.	.	.	.	.
.	.	.	.	.	.	1A/	de-	.
1F\	de-	.	1c\	de-	.	.	.	.
.	.	.	.	.	.	2A/	-i	.
=30-	=30-	=30-	=30-	=30-	=30-	=30-	=30-	=30-
1C/	-i	.	1c\	-i	.	2G/	.	.
.	.	.	.	.	.	1c\	.	.
*lig	*	*	*	*	*	*	*	*
1G\	.	.	1d\	.	.	.	.	.
.	.	.	.	.	.	2B/	.	.
=31-	=31-	=31-	=31-	=31-	=31-	=31-	=31-	=31-
1C/	.	.	1e\	.	.	0c\	.	.
*Xlig	*	*	*	*	*	*	*	*
*custos:D	*	*	*	*	*	*	*	*
1F\	.	.	1f\,<	.	.	.	.	.
!LO:LB:g=original	!	!	!	!	!	!	!	!
=32-	=32-	=32-	=32-	=32-	=32-	=32-	=32-	=32-
*lig	*	*	*lig	*	*	*	*	*
1D/	qui	.	1f\	qui	.	1d\	qui	.
1C/	.	.	1c\	.	.	1e\	.	.
*Xlig	*	*	*	*	*	*	*	*
=33-	=33-	=33-	=33-	=33-	=33-	=33-	=33-	=33-
*lig	*	*	*	*	*	*	*	*
1F\	.	.	1A/	.	.	2c/	.	.
.	.	.	.	.	.	1f\	.	.
1D/	.	.	1F/	.	.	.	.	.
.	.	.	.	.	.	2f\	.	.
*Xlig	*	*	*Xlig	*	*	*	*	*
=34-	=34-	=34-	=34-	=34-	=34-	=34-	=34-	=34-
*	*	*	*lig	*	*	*	*	*
*	*	*	*	*	*	*custos:g	*	*
1G\	tol-	.	1B/	tol-	.	2d/	tol-	.
!	!	!	!	!	!	!LO:LB:g=original	!	!
.	.	.	.	.	.	1g\	.	.
2D/	.	.	1A/	.	.	.	.	.
1F\	.	.	.	.	.	2f\	.	.
*	*	*	*Xlig	*	*	*	*	*
=35-	=35-	=35-	=35-	=35-	=35-	=35-	=35-	=35-
.	.	.	1G/	-lis	.	2d/	-lis	.
2E/	.	.	.	.	.	2e\	.	.
1F\	-lis	.	1A/	.	.	2d/	Pec-	.
.	.	.	.	.	.	1f\	-ca-	.
=36-	=36-	=36-	=36-	=36-	=36-	=36-	=36-	=36-
*	*	*	*lig	*	*	*	*	*
1C/	.	.	1G/	.	.	.	.	.
.	.	.	.	.	.	2e\	-ta	.
1c\	.	.	1F/,<	.	.	1f\	.	.
*	*	*	*Xlig	*	*	*	*	*
=37-	=37-	=37-	=37-	=37-	=37-	=37-	=37-	=37-
1A\	Pec-	.	1A/	pec-	.	1e\	mun	.
2A\	-ca-	.	1c\	-(ca)-	.	2e\	.	.
2F/	-ta	.	.	.	.	1f\	.	.
=38-	=38-	=38-	=38-	=38-	=38-	=38-	=38-	=38-
1A\	mu(n)	.	1c\	-ta	.	.	.	.
.	.	.	.	.	.	2f\	.	.
1G\	.	.	1d\	.	.	0g\	.	.
=39-	=39-	=39-	=39-	=39-	=39-	=39-	=39-	=39-
*	*	*	*lig	*	*	*	*	*
1C/	.	.	1e\	mun-	.	.	.	.
1D/	.	.	1d\	.	.	0f\	.	.
=40-	=40-	=40-	=40-	=40-	=40-	=40-	=40-	=40-
*custos:C	*	*	*custos:c	*	*	*	*	*
1D/	.	.	1B/	.	.	.	.	.
*	*	*	*Xlig	*	*	*	*	*
*	*	*	*	*	*	*custos:a	*	*
!LO:PB:g=original	!	!	!LO:LB:g=original	!	!	!	!	!
1C/	.	.	1c\	-di	.	1e\	.	.
!	!	!	!	!	!	!LO:LB:g=original	!	!
=41-	=41-	=41-	=41-	=41-	=41-	=41-	=41-	=41-
0D/	.	.	1f\	mi-	.	0a\	.	.
*	*	*	*lig	*	*	*	*	*
.	.	.	1f\	-ſe-	.	.	.	.
=42-	=42-	=42-	=42-	=42-	=42-	=42-	=42-	=42-
1F\	.	.	1c\	.	.	0f\	.	.
*lig	*	*	*Xlig	*	*	*	*	*
1F\	.	.	1A/	-re-	.	.	.	.
=43-	=43-	=43-	=43-	=43-	=43-	=43-	=43-	=43-
1BB/	.	.	1F/	-re	.	0d\	.	.
*Xlig	*	*	*lig	*	*	*	*	*
1BB/	.	.	1B/	no-	.	.	.	.
=44-	=44-	=44-	=44-	=44-	=44-	=44-	=44-	=44-
*lig	*	*	*	*	*	*	*	*
1F\	.	.	1A/	.	.	1c\	.	.
*	*	*	*Xlig	*	*	*	*	*
1E/	.	.	1G/	.	.	2e\	No-	.
.	.	.	.	.	.	1g\	.	.
*Xlig	*	*	*	*	*	*	*	*
=45-	=45-	=45-	=45-	=45-	=45-	=45-	=45-	=45-
1F\	.	.	1A/	.	.	.	.	.
.	.	.	.	.	.	1f\	.	.
1C/	.	.	0G/	-bis	.	.	.	.
.	.	.	.	.	.	2e\	.	.
=46-	=46-	=46-	=46-	=46-	=46-	=46-	=46-	=46-
*custos:C	*	*	*	*	*	*custos:g	*	*
0F\;l	.	.	.	.	.	0f\;<l	-bis	.
.	.	.	1F/l	.	.	.	.	.
==	==	==	==	==	==	==	==	==
*-	*-	*-	*-	*-	*-	*-	*-	*-
!!!system-decoration: [(s1,s2,s3)]
!!!RDF**kern: < = below
!!!RDF**kern: l = terminal long
!!!ENC: Mateusz Solarz
!!!END: 2021-12-29
!!!EED: Andrzej Borzym
!!!EEV: 2022-01-02
!!!YEC: Copyright 2022 Narodowy Instytut Fryderyka Chopina (https://polishscores.org)
!!!YEM: License CC-BY-4.0 (https://creativecommons.org/licenses/by/4.0)
